X: 20753
M: 2/4
L: 1/16
K: Bb
|:\
d4 f4 | B4 d4 | .c2.d2.e2.d2 | c2f2 z4 |\
f4 B4 | d4 f4 | c3d e2A2 | B2B2 z2(AB) |\
c4 .d.c.B.c | d2 f4 ed | c4 .d.c.B.c | d4 z2f2 |\
f4 gfef | d2 b4 d2 | g3f fedc | B2B2 z2 :|
K: F
M: 6/8
L: 1/8
|: c |\
g2f c2A | d2B G2B | A>dc G>BA | F>Ac f2 :|
K: Bb
|: f/e/ |\
d2d d2d | (f3 g)fe/d/ | c2c c2c | c2 (cd) e2 |\
d2f b2d | c2f a2f | ggf edc | B3 z2 :|


